X:14
T:Rose Dance. JBs.014
S:Jas.Blackshaw MS, 1837, N.Shropshire
Z:T.Weatherall 200
M:2/4
L:1/8
Q:1/2=100
A:North Shropshire
R:Country Dance
K:G
d|b2gb|af d2|efge|dBG2|b2gb|af d2|egfa|g2:|
|:d|d2Bd|e2ce|d2Bd|cA A2|d2Bd|e2ag|fdef|g2:|

